public/img/events/boethiah.svg

<svg width="200" height="200" viewBox="0 0 200 200" fill="none" xmlns="http://www.w3.org/2000/svg">
<path d="M72.4361 49.0275C69.9888 47.1093 67.2517 45.6147 64.2995 44.6241C62.8392 44.1345 61.3358 43.7737 59.8095 43.5504C59.0635 43.4416 58.3176 43.3586 57.5659 43.3099C56.7654 43.2584 55.942 43.2126 55.1502 43.3643C53.5435 43.6735 52.7144 45.1452 51.9799 46.4565C51.2225 47.8107 50.5741 49.2222 50.006 50.6623C48.8728 53.534 48.1039 56.5345 47.5272 59.5608C46.939 62.6501 46.5517 65.7766 46.1988 68.9002C45.8201 72.2701 45.3439 75.6743 45.8086 79.0585C46.6292 85.0652 50.0806 90.3104 53.9079 94.8599C57.8471 99.541 62.4031 103.747 65.6652 108.963C66.0697 109.611 66.4541 110.275 66.8128 110.948C67.246 111.761 68.4854 111.039 68.0522 110.226C65.1918 104.866 60.8595 100.535 56.84 96.0481C53.0443 91.8078 49.3691 87.1353 47.794 81.5751C47.3923 80.1522 47.137 78.6949 47.0653 77.2175C46.9849 75.5312 47.1054 73.8448 47.2747 72.1699C47.5817 69.115 47.9231 66.0543 48.385 63.0166C49.2687 57.1873 50.6573 51.192 53.8247 46.1358C54.1546 45.609 54.5506 45.0507 55.1645 44.836C55.8359 44.6012 56.622 44.6899 57.3192 44.7243C58.7537 44.7987 60.1738 45.0077 61.5739 45.3341C64.4516 46.007 67.1915 47.1808 69.6675 48.7899C70.2671 49.1793 70.8524 49.5944 71.4175 50.0353C71.7217 50.273 72.1348 50.3331 72.4332 50.0353C72.6857 49.792 72.743 49.268 72.4361 49.0275Z" fill="black"/>
<path d="M71.4451 49.9269C72.2954 50.785 73.4023 51.2356 74.5207 51.6459C75.5353 52.0162 76.5355 52.3778 77.2907 53.1813C77.9047 53.8356 78.2304 54.7769 77.6625 55.546C77.1725 56.2118 76.1925 56.5074 75.3825 56.6911C74.1258 56.981 72.8258 57.1589 71.5489 57.3282C70.1077 57.5176 68.652 57.6295 67.1993 57.5693C66.8476 57.5549 66.4989 57.5291 66.1501 57.4918C65.833 57.4574 65.4987 57.3713 65.1816 57.3885C64.3774 57.4315 64.0229 58.1806 64.1814 58.8951C64.3169 59.5064 64.6945 60.1177 65.0086 60.6543C65.3459 61.2312 65.7235 61.7822 66.0953 62.3361C67.9372 65.071 69.7791 67.8088 71.6181 70.5438C72.1311 71.3072 73.3821 70.5897 72.8633 69.8206C71.5143 67.8174 70.1682 65.8172 68.8192 63.814C68.1678 62.8469 67.5077 61.8826 66.8649 60.9069C66.5709 60.4621 66.2856 60.0086 66.029 59.538C65.9051 59.3141 65.7869 59.0846 65.6831 58.8492C65.6687 58.8148 65.6226 58.6455 65.5909 58.6053C65.4612 58.4474 65.6802 58.5421 65.539 58.6541C65.4324 58.7143 65.3257 58.7775 65.2219 58.8377C65.3661 58.7803 65.6284 58.8607 65.8013 58.8808C66.0348 58.9095 66.2654 58.9353 66.4989 58.9554C67.0119 58.9985 67.525 59.0157 68.041 59.0157C69.0498 59.0128 70.0587 58.9382 71.0589 58.8205C72.0591 58.7029 73.0564 58.5508 74.0508 58.3843C74.8147 58.258 75.5872 58.1461 76.3308 57.9251C77.6971 57.5205 79.1066 56.671 79.3603 55.1529C79.6428 53.4712 78.4667 52.0219 77.0976 51.1925C75.6247 50.3 73.7165 50.1651 72.4684 48.9053C71.8112 48.2538 70.7908 49.2697 71.4451 49.9269Z" fill="black"/>
<path d="M65.2597 44.891C64.7531 43.2416 66.3654 41.7764 67.5782 40.9301C69.0804 39.8823 70.7766 39.1569 72.5741 38.8057C73.9808 38.5294 75.6538 38.4114 76.9332 39.1857C78.473 40.1184 78.2357 42.0959 78.0678 43.6273C77.8073 45.9848 77.3789 48.3193 76.8174 50.625C76.5974 51.526 77.9926 51.9088 78.2125 51.0078C78.7799 48.6906 79.1967 46.3417 79.4745 43.9727C79.709 41.9836 79.8827 39.6578 78.1257 38.2675C76.6408 37.093 74.6436 37.0412 72.8462 37.3031C70.765 37.6054 68.736 38.4027 66.9964 39.5829C65.1815 40.8121 63.1235 42.8673 63.8616 45.2738C64.1337 46.1575 65.5318 45.7804 65.2597 44.891Z" fill="black"/>
<path d="M79.463 44.4807C81.9102 44.6988 84.5126 45.3217 86.3796 47.0151C87.1809 47.7441 87.8646 48.6425 88.2552 49.6586C88.6343 50.6516 88.8526 51.8945 88.4247 52.9076C87.9364 54.0615 86.5232 54.2796 85.4317 54.469C85.0497 54.535 84.8343 55.0058 84.929 55.3531C85.0411 55.7578 85.4288 55.9214 85.8137 55.8553C87.0747 55.6401 88.4304 55.3129 89.2662 54.2653C90.1883 53.1086 90.2199 51.4898 89.8953 50.1063C89.2461 47.3394 87.023 45.2442 84.4695 44.1736C82.8782 43.5077 81.1778 43.2006 79.4659 43.0456C79.0781 43.0111 78.7478 43.4015 78.7478 43.7631C78.7449 44.1793 79.0753 44.4462 79.463 44.4807Z" fill="black"/>
<path d="M89.2396 53.8218C91.593 53.8046 94.2182 54.1857 95.8409 56.094C96.7273 57.1342 97.2909 58.5869 97.6449 59.8993C97.9422 60.9968 97.8629 62.1114 97.1125 63.0054C96.3931 63.8622 95.2773 64.4238 94.1814 64.1716C93.295 63.9682 92.9155 65.3493 93.8047 65.5528C96.5772 66.186 99.3978 63.6988 99.2307 60.8392C99.1798 59.9595 98.9107 59.1256 98.6021 58.309C98.3019 57.521 97.9734 56.733 97.5259 56.0167C96.6905 54.6785 95.4897 53.7301 94.0426 53.1484C92.5304 52.5409 90.8567 52.3805 89.2425 52.3919C88.3306 52.3948 88.3277 53.8275 89.2396 53.8218Z" fill="black"/>
<path d="M98.2223 64.4454C100.164 64.8834 101.027 67.1191 101.634 68.7967C101.867 69.4408 102.086 70.0877 102.297 70.7404C102.4 71.061 102.516 71.3816 102.599 71.708C102.644 71.8826 102.548 71.9055 102.363 72.0315C101.363 72.7185 100.207 73.1021 98.9968 73.1336C98.0827 73.1565 98.0799 74.5878 98.9968 74.5649C100.184 74.5334 101.346 74.2357 102.4 73.6804C102.895 73.4199 103.467 73.0964 103.795 72.6298C104.182 72.0773 104.02 71.4732 103.835 70.8807C103.194 68.8224 102.553 66.5752 101.218 64.8462C100.554 63.9874 99.6745 63.3032 98.601 63.0627C97.7069 62.8652 97.3253 64.245 98.2223 64.4454Z" fill="black"/>
<path d="M71.1141 69.9169C76.8561 75.5904 78.792 83.8801 79.404 91.674C79.6013 94.207 79.6814 96.7486 79.7357 99.2903C79.75 99.9808 80.7165 100.29 81.0683 99.6513C83.8649 94.5881 89.1523 91.78 94.3681 89.8C95.8837 89.2241 97.4193 88.7026 98.9606 88.1954C99.8299 87.9088 99.4582 86.5248 98.5803 86.8142C93.007 88.651 87.1163 90.7169 82.8555 94.9463C81.6688 96.124 80.6422 97.4679 79.8358 98.9292C80.279 99.0496 80.7251 99.1699 81.1683 99.2903C80.9796 90.7313 80.4763 81.7539 76.124 74.1491C75.0288 72.2379 73.6963 70.4527 72.1264 68.9054C71.4687 68.2549 70.4564 69.2664 71.1141 69.9169Z" fill="black"/>
<path d="M101.298 92.2403C100.41 95.1664 98.9217 97.8551 97.7769 100.681C96.6033 103.576 95.9776 106.616 95.6662 109.714C95.3461 112.866 95.3404 116.038 95.3231 119.205C95.3058 122.523 95.3115 125.844 95.3432 129.162C95.3778 132.909 95.4442 136.653 95.5393 140.397C95.5624 141.315 97.0042 141.318 96.9811 140.397C96.811 133.761 96.736 127.122 96.7591 120.483C96.7792 114.334 96.6264 107.958 98.7718 102.091C99.9454 98.8791 101.693 95.9015 102.69 92.6207C102.959 91.7368 101.566 91.3593 101.298 92.2403Z" fill="black"/>
<path d="M96.3626 111.523C89.713 111.911 84.8093 117.045 80.6288 121.678C79.4389 122.995 78.3469 124.381 77.6929 126.044C77.5518 126.406 77.8485 126.832 78.1971 126.929C78.6062 127.042 78.9405 126.791 79.0845 126.426C79.606 125.106 80.5107 123.973 81.4442 122.923C82.4583 121.782 83.5042 120.663 84.5759 119.573C86.6878 117.427 88.9956 115.44 91.7499 114.163C93.1963 113.493 94.7722 113.053 96.3655 112.961C97.2846 112.907 97.2903 111.469 96.3626 111.523Z" fill="black"/>
<path d="M69.9806 113.542C68.879 122.564 70.1355 131.892 73.5869 140.304C76.6997 147.889 81.7519 156.21 90.1034 158.7C94.5674 160.031 99.2869 159.696 103.846 160.446C107.919 161.116 111.764 162.839 114.937 165.484C116.549 166.826 117.992 168.377 119.194 170.098C120.531 172.013 121.616 174.085 122.712 176.143C124.978 180.396 127.48 184.561 130.409 188.396C131.789 190.202 133.304 191.9 135.163 193.231C136.841 194.433 138.775 195.274 140.775 195.787C144.889 196.84 149.221 196.591 153.398 196.093C154.425 195.97 155.452 195.83 156.476 195.687C156.861 195.632 157.07 195.146 156.978 194.805C156.864 194.393 156.482 194.25 156.095 194.304C152.001 194.882 147.815 195.392 143.687 194.885C141.727 194.645 139.768 194.132 137.995 193.256C136.072 192.306 134.449 190.947 133.028 189.349C131.517 187.649 130.22 185.757 128.96 183.868C127.612 181.845 126.344 179.767 125.156 177.646C122.964 173.721 121.085 169.608 117.935 166.322C115.109 163.377 111.549 161.13 107.656 159.882C103.326 158.494 98.7504 158.677 94.2863 158.102C92.1145 157.821 89.9341 157.32 87.9631 156.342C86.1844 155.46 84.5893 154.266 83.172 152.881C80.2199 149.999 78.0165 146.412 76.2234 142.726C72.3303 134.72 70.5831 125.684 71.111 116.808C71.177 115.717 71.2774 114.627 71.4094 113.542C71.4553 113.158 71.045 112.826 70.6921 112.826C70.2704 112.826 70.0265 113.155 69.9806 113.542Z" fill="black"/>
<path d="M58.2817 98.8055C56.5427 101.443 54.2357 103.613 52.1295 105.946C50.2299 108.05 48.5656 110.338 47.2427 112.846C44.6143 117.828 43.2398 123.427 43.0275 129.042C42.5999 140.38 47.1911 151.293 54.7206 159.657C58.5686 163.934 63.2258 167.712 68.3622 170.335C71.2575 171.812 74.3249 172.795 77.5445 173.239C80.6923 173.675 83.8717 173.686 87.0454 173.629C93.3496 173.512 99.8461 173.156 105.809 175.587C111.195 177.783 115.654 181.802 119.468 186.096C123.181 190.275 126.478 195.169 131.471 197.952C137.043 201.059 143.548 200.228 149.316 198.124C150.762 197.597 152.18 196.992 153.577 196.344C154.415 195.957 153.686 194.721 152.854 195.105C147.428 197.617 141.043 199.746 135.078 197.941C129.674 196.307 126.007 191.611 122.529 187.463C118.845 183.074 114.816 178.872 109.815 175.971C107.313 174.518 104.598 173.448 101.763 172.864C98.6639 172.224 95.4874 172.087 92.331 172.101C86.1501 172.127 79.7942 172.749 73.774 170.983C68.1498 169.335 63.0651 165.732 58.8154 161.773C50.7894 154.294 45.1882 144.04 44.511 132.987C44.1753 127.509 44.9701 121.965 46.9788 116.848C47.9687 114.322 49.283 111.914 50.8784 109.719C52.6173 107.325 54.778 105.287 56.7407 103.085C57.7451 101.962 58.6949 100.786 59.5241 99.5279C60.0292 98.7568 58.7867 98.0401 58.2817 98.8055Z" fill="black"/>
<path d="M79.7773 0.220572C78.002 0.41592 76.2812 0.904293 74.7268 1.79485C73.2355 2.64806 71.9793 3.83164 70.9526 5.20194C70.0635 6.39127 69.3752 7.74147 68.684 9.04857C68.0072 10.3327 67.3504 11.6283 66.6019 12.8722C65.2339 15.1561 63.4816 17.3221 60.8889 18.0978C60.5419 18.2012 60.192 18.2816 59.8335 18.342C59.3488 18.4224 58.9043 18.3678 58.5974 18.8476C58.1586 19.5399 57.9693 20.4075 58.064 21.2205C58.2619 22.9556 59.4865 24.4092 61.0467 25.1303C64.9241 26.9172 69.3437 25.2682 72.1313 22.2891C72.7623 21.614 71.7499 20.5971 71.116 21.2722C69.6132 22.8809 67.5942 24.1162 65.383 24.4035C63.3955 24.662 60.9119 24.0789 59.8565 22.2116C59.3546 21.3239 59.3345 20.3529 59.888 19.4939C59.6815 19.6117 59.475 19.7324 59.2685 19.8502C61.1499 19.6835 62.8735 19.0228 64.3563 17.8478C65.73 16.7591 66.7883 15.3141 67.6974 13.8288C68.6525 12.2689 69.4555 10.6228 70.3245 9.0141C71.2336 7.32491 72.1858 5.67308 73.6198 4.36597C75.3176 2.81755 77.5001 1.90976 79.7744 1.65983C80.1587 1.61674 80.4914 1.36106 80.4914 0.941638C80.4943 0.582543 80.1644 0.177481 79.7773 0.220572Z" fill="black"/>
<path d="M64.7315 27.1897C62.3576 26.9818 60.5075 28.8728 59.1148 30.5246C58.8674 30.8208 58.8213 31.2423 59.1148 31.5327C59.3709 31.7862 59.8831 31.8289 60.1334 31.5327C60.4586 31.1454 60.7924 30.7638 61.1463 30.4021C61.3333 30.2085 61.529 30.0234 61.7275 29.8439C61.8167 29.7642 61.9088 29.6873 62.0008 29.6104C62.0526 29.5677 62.1044 29.5278 62.1562 29.4851C62.0929 29.5335 62.2138 29.4424 62.231 29.431C62.4296 29.2857 62.6367 29.1519 62.8497 29.0351C63.0827 28.907 63.2065 28.8472 63.3993 28.7817C63.6208 28.7048 63.8539 28.6421 64.0869 28.6108C63.9862 28.625 64.1186 28.6108 64.156 28.6079C64.2193 28.6022 64.2826 28.5994 64.3459 28.5994C64.4754 28.5966 64.602 28.6051 64.7315 28.6165C65.1199 28.6507 65.4508 28.2662 65.4508 27.9045C65.4508 27.4859 65.1199 27.221 64.7315 27.1897Z" fill="black"/>
<path d="M71.6885 26.4561C70.8172 27.0256 69.9459 27.5951 69.0746 28.1647C68.7049 28.408 68.5759 28.9603 68.9285 29.2895C70.5077 30.7549 72.7546 30.1452 74.4284 29.1893C75.3742 28.6484 76.2312 27.9529 77.0881 27.286C77.9737 26.5992 78.845 25.8922 79.7364 25.2111C83.0352 22.6896 87.2197 20.1338 91.5617 21.2414C95.408 22.2231 97.4486 26.1985 98.1623 29.8132C98.8301 33.199 98.3543 36.7766 97.0359 39.9506C95.7261 43.0989 93.5049 45.9266 90.6274 47.7869C90.2577 48.0244 89.8794 48.2477 89.4953 48.4538C88.6842 48.8916 89.4065 50.128 90.2176 49.6902C93.4419 47.9557 96.0328 45.1624 97.6922 41.9168C99.3603 38.6541 100.166 34.9077 99.8074 31.25C99.4319 27.3919 97.8126 23.1847 94.4593 20.9695C90.5357 18.3765 85.4456 19.7503 81.7484 22.0542C79.745 23.3049 77.9365 24.8304 76.0735 26.2757C75.2281 26.9312 74.374 27.6095 73.4224 28.1103C72.6744 28.5053 71.7429 28.8716 70.8774 28.7342C70.5334 28.6799 70.2039 28.5224 69.9402 28.2792C69.8915 28.6541 69.8427 29.029 69.794 29.404C70.6653 28.8344 71.5366 28.2649 72.4079 27.6953C73.1817 27.1887 72.4652 25.9495 71.6885 26.4561Z" fill="black"/>
<path d="M80.5293 1.53734C86.013 1.24498 91.6257 1.47141 96.9144 3.07653C99.4928 3.85903 101.962 4.98835 104.173 6.53901C106.554 8.20719 108.539 10.3827 110.127 12.8076C113.426 17.8322 115.187 23.8113 115.238 29.8161C115.287 35.5573 113.71 41.2211 110.764 46.1454C109.344 48.5187 107.621 50.6999 105.633 52.6261C103.551 54.6411 101.033 56.1803 99.0654 58.3128C98.5721 58.8459 98.1218 59.422 97.7289 60.0325C97.227 60.8093 98.4689 61.5287 98.9679 60.7548C100.571 58.2726 103.19 56.7019 105.381 54.7987C107.575 52.8955 109.499 50.6827 111.114 48.2693C114.395 43.3708 116.334 37.6124 116.632 31.7251C116.948 25.531 115.479 19.2367 112.43 13.8337C110.913 11.1423 108.992 8.6314 106.623 6.63073C104.469 4.8135 102.014 3.42909 99.3895 2.41729C94.0836 0.367892 88.2558 -0.122243 82.6115 0.0239381C81.9174 0.0411359 81.2234 0.069799 80.5293 0.107061C79.6087 0.152921 79.6029 1.58607 80.5293 1.53734Z" fill="black"/>
</svg>

<svg xmlns="http://www.w3.org/2000/svg" width="200" height="200" fill="none"><path fill="#000" d="M72.436 49.028a27.2 27.2 0 0 0-8.137-4.404c-1.46-.49-2.963-.85-4.49-1.074a28 28 0 0 0-2.243-.24c-.8-.052-1.624-.097-2.416.054-1.606.31-2.436 1.781-3.17 3.093a35 35 0 0 0-1.974 4.205c-1.133 2.872-1.902 5.873-2.479 8.899-.588 3.09-.975 6.216-1.328 9.34-.379 3.37-.855 6.773-.39 10.157.82 6.007 4.272 11.252 8.099 15.802 3.94 4.681 8.495 8.887 11.757 14.103q.61.974 1.148 1.985c.433.813 1.672.091 1.24-.722-2.861-5.36-7.193-9.691-11.213-14.178-3.796-4.24-7.47-8.913-9.046-14.473a19.5 19.5 0 0 1-.729-4.358c-.08-1.686.04-3.372.21-5.047.307-3.055.648-6.116 1.11-9.153.884-5.83 2.272-11.825 5.44-16.881.33-.527.726-1.085 1.34-1.3.67-.235 1.457-.146 2.154-.112a24.3 24.3 0 0 1 4.255.61 25.5 25.5 0 0 1 9.844 4.701c.304.238.717.298 1.015 0 .253-.243.31-.767.003-1.007"/><path fill="#000" d="M71.445 49.927c.85.858 1.957 1.309 3.076 1.719 1.014.37 2.014.732 2.77 1.535.614.655.94 1.596.371 2.365-.49.666-1.47.961-2.28 1.145-1.256.29-2.556.468-3.833.637-1.441.19-2.897.301-4.35.241q-.526-.021-1.049-.077c-.317-.035-.651-.12-.968-.103-.805.042-1.16.792-1 1.506.135.611.513 1.223.827 1.76.337.576.715 1.127 1.086 1.681q2.764 4.104 5.523 8.208c.513.763 1.764.046 1.245-.723l-4.044-6.007c-.651-.967-1.311-1.931-1.954-2.907-.294-.445-.58-.898-.836-1.369a9 9 0 0 1-.346-.689c-.014-.034-.06-.203-.092-.244-.13-.158.09-.063-.052.05q-.16.092-.317.183c.144-.058.406.023.58.043q.348.044.697.074c.513.044 1.026.06 1.542.06a27 27 0 0 0 3.018-.194c1-.118 1.997-.27 2.992-.437.764-.126 1.536-.238 2.28-.459 1.366-.404 2.776-1.254 3.03-2.772.282-1.682-.894-3.131-2.263-3.96-1.473-.893-3.382-1.028-4.63-2.288-.657-.651-1.677.365-1.023 1.022"/><path fill="#000" d="M65.26 44.891c-.507-1.65 1.105-3.115 2.318-3.96a13.1 13.1 0 0 1 4.996-2.125c1.407-.277 3.08-.395 4.36.38 1.539.932 1.302 2.91 1.134 4.441a55 55 0 0 1-1.25 6.998c-.22.901 1.175 1.284 1.395.383a58 58 0 0 0 1.262-7.035c.234-1.99.408-4.315-1.35-5.706-1.484-1.174-3.481-1.226-5.279-.964-2.081.302-4.11 1.1-5.85 2.28-1.814 1.23-3.872 3.284-3.134 5.69.272.884 1.67.507 1.398-.382"/><path fill="#000" d="M79.463 44.48c2.447.219 5.05.842 6.917 2.535.8.73 1.485 1.627 1.875 2.644.38.993.598 2.236.17 3.249-.489 1.154-1.902 1.372-2.993 1.561-.382.066-.598.537-.503.884.112.405.5.568.885.502 1.26-.215 2.616-.542 3.452-1.59.922-1.156.954-2.775.63-4.159-.65-2.767-2.873-4.862-5.427-5.932-1.59-.666-3.291-.973-5.003-1.128-.388-.035-.718.355-.718.717-.003.416.327.683.715.718"/><path fill="#000" d="M89.24 53.822c2.353-.017 4.978.364 6.6 2.272.887 1.04 1.45 2.493 1.805 3.805.297 1.098.218 2.212-.532 3.106-.72.857-1.836 1.419-2.932 1.167-.886-.204-1.266 1.177-.376 1.38 2.772.634 5.593-1.853 5.426-4.713-.051-.88-.32-1.713-.629-2.53-.3-.788-.629-1.576-1.076-2.292-.835-1.339-2.036-2.287-3.483-2.869-1.513-.607-3.186-.768-4.8-.756-.912.003-.915 1.435-.003 1.43"/><path fill="#000" d="M98.222 64.445c1.942.438 2.805 2.674 3.412 4.352q.348.965.663 1.943c.103.321.219.642.302.968.045.175-.051.198-.236.323a6.2 6.2 0 0 1-3.366 1.103c-.914.022-.917 1.454 0 1.43a7.7 7.7 0 0 0 3.403-.884c.495-.26 1.067-.584 1.395-1.05.387-.553.225-1.157.04-1.75-.641-2.058-1.282-4.305-2.617-6.034-.664-.859-1.544-1.543-2.617-1.783-.894-.198-1.276 1.182-.379 1.382M71.114 69.917c5.742 5.673 7.678 13.963 8.29 21.757.197 2.533.277 5.075.332 7.616.014.69.98 1 1.332.361 2.797-5.063 8.084-7.871 13.3-9.851a108 108 0 0 1 4.593-1.605c.869-.286.497-1.67-.38-1.38-5.574 1.836-11.465 3.902-15.725 8.131a17.6 17.6 0 0 0-3.02 3.983c.443.12.89.24 1.332.361-.188-8.559-.692-17.536-5.044-25.14-1.095-1.912-2.428-3.697-3.998-5.245-.657-.65-1.67.361-1.012 1.012M101.298 92.24c-.888 2.926-2.376 5.615-3.521 8.441-1.174 2.895-1.8 5.935-2.11 9.033-.32 3.152-.327 6.324-.344 9.491q-.026 4.978.02 9.957.053 5.62.196 11.235c.023.918 1.465.921 1.442 0a684 684 0 0 1-.222-19.914c.02-6.149-.133-12.525 2.013-18.392 1.173-3.212 2.921-6.19 3.918-9.47.269-.884-1.124-1.262-1.392-.38"/><path fill="#000" d="M96.363 111.523c-6.65.388-11.554 5.522-15.734 10.155-1.19 1.317-2.282 2.703-2.936 4.366-.141.362.156.788.504.885.41.113.743-.138.888-.503.521-1.32 1.426-2.453 2.36-3.503a91 91 0 0 1 3.13-3.35c2.113-2.146 4.42-4.133 7.175-5.41 1.446-.67 3.022-1.11 4.615-1.202.92-.054.925-1.492-.002-1.438"/><path fill="#000" d="M69.98 113.542a53.8 53.8 0 0 0 3.607 26.762c3.113 7.585 8.165 15.906 16.516 18.396 4.464 1.331 9.184.996 13.743 1.746 4.073.67 7.918 2.393 11.091 5.038a23.6 23.6 0 0 1 4.257 4.614c1.337 1.915 2.422 3.987 3.518 6.045 2.266 4.253 4.768 8.418 7.697 12.253 1.38 1.806 2.895 3.504 4.754 4.835 1.678 1.202 3.612 2.043 5.612 2.556 4.114 1.053 8.446.804 12.623.306a159 159 0 0 0 3.078-.406c.385-.055.594-.541.502-.882-.114-.412-.496-.555-.883-.501-4.094.578-8.28 1.088-12.408.581-1.96-.24-3.919-.753-5.692-1.629-1.923-.95-3.546-2.309-4.967-3.907-1.511-1.7-2.808-3.592-4.068-5.481a95 95 0 0 1-3.804-6.222c-2.192-3.925-4.071-8.038-7.221-11.324-2.826-2.945-6.386-5.192-10.279-6.44-4.33-1.388-8.906-1.205-13.37-1.78-2.171-.281-4.352-.782-6.323-1.76-1.779-.882-3.374-2.076-4.791-3.461-2.952-2.882-5.156-6.469-6.949-10.155-3.893-8.006-5.64-17.042-5.112-25.918q.1-1.637.298-3.266c.046-.384-.364-.716-.717-.716-.422 0-.665.329-.711.716"/><path fill="#000" d="M58.282 98.806c-1.74 2.637-4.046 4.807-6.152 7.14-1.9 2.104-3.564 4.392-4.887 6.9-2.629 4.982-4.003 10.581-4.215 16.196-.428 11.338 4.163 22.251 11.693 30.615 3.848 4.277 8.505 8.055 13.641 10.678a28.8 28.8 0 0 0 9.183 2.904c3.147.436 6.327.447 9.5.39 6.305-.117 12.801-.473 18.764 1.958 5.386 2.196 9.845 6.215 13.659 10.509 3.713 4.179 7.01 9.073 12.003 11.856 5.572 3.107 12.077 2.276 17.845.172a55 55 0 0 0 4.261-1.78c.838-.387.109-1.623-.723-1.239-5.426 2.512-11.811 4.641-17.776 2.836-5.404-1.634-9.071-6.33-12.549-10.478-3.684-4.389-7.713-8.591-12.714-11.492-2.502-1.453-5.217-2.523-8.052-3.107-3.1-.64-6.276-.777-9.432-.763-6.18.026-12.537.648-18.557-1.118-5.624-1.648-10.709-5.251-14.959-9.21-8.026-7.479-13.627-17.733-14.304-28.786-.336-5.478.46-11.022 2.468-16.139a32 32 0 0 1 3.9-7.129c1.738-2.394 3.899-4.432 5.862-6.634 1.004-1.123 1.954-2.299 2.783-3.557.505-.771-.737-1.488-1.242-.723M79.777.22c-1.775.196-3.496.684-5.05 1.575-1.492.853-2.748 2.037-3.774 3.407-.89 1.19-1.578 2.54-2.269 3.847-.677 1.284-1.334 2.58-2.082 3.823-1.368 2.284-3.12 4.45-5.713 5.226a9 9 0 0 1-1.056.244c-.484.08-.929.026-1.236.506a3.7 3.7 0 0 0-.533 2.373c.198 1.735 1.422 3.188 2.983 3.91 3.877 1.786 8.297.137 11.084-2.842.631-.675-.381-1.692-1.015-1.017-1.503 1.609-3.522 2.844-5.733 3.132-1.987.258-4.471-.325-5.526-2.192-.502-.888-.523-1.86.031-2.718l-.62.356c1.882-.167 3.605-.827 5.088-2.002 1.374-1.089 2.432-2.534 3.341-4.02.956-1.56 1.758-3.205 2.627-4.814.91-1.69 1.862-3.34 3.296-4.648 1.698-1.548 3.88-2.456 6.154-2.706.385-.043.717-.299.717-.718.003-.36-.327-.765-.714-.721M64.732 27.19c-2.374-.208-4.224 1.683-5.617 3.335-.248.296-.294.717 0 1.008.256.253.768.296 1.018 0 .326-.388.66-.77 1.013-1.13q.282-.29.581-.56.136-.118.274-.233l.155-.125c-.063.049.058-.043.075-.054.199-.145.406-.28.619-.396a3.567 3.567 0 0 1 1.237-.424c-.1.014.032 0 .069-.003q.095-.009.19-.009.193-.001.385.017c.389.035.72-.35.72-.712 0-.418-.331-.683-.72-.714M71.689 26.456l-2.614 1.709c-.37.243-.5.795-.147 1.125 1.58 1.465 3.827.855 5.5-.1.946-.542 1.803-1.237 2.66-1.904.886-.687 1.757-1.394 2.648-2.075 3.3-2.521 7.484-5.077 11.826-3.97 3.846.982 5.887 4.958 6.6 8.572.668 3.386.192 6.964-1.126 10.138-1.31 3.148-3.531 5.976-6.409 7.836q-.555.356-1.132.667c-.81.438-.089 1.674.723 1.236 3.224-1.734 5.815-4.528 7.474-7.773 1.668-3.263 2.474-7.01 2.115-10.667-.375-3.858-1.994-8.065-5.348-10.28-3.923-2.593-9.013-1.22-12.71 1.084-2.004 1.25-3.812 2.776-5.675 4.222-.846.655-1.7 1.334-2.652 1.834-.748.395-1.68.762-2.545.624a1.8 1.8 0 0 1-.937-.455l-.146 1.125 2.614-1.709c.774-.506.057-1.745-.72-1.239"/><path fill="#000" d="M80.53 1.537c5.483-.292 11.096-.066 16.384 1.54 2.579.782 5.048 1.911 7.259 3.462 2.381 1.668 4.366 3.844 5.954 6.269 3.299 5.024 5.06 11.003 5.111 17.008.049 5.741-1.528 11.405-4.474 16.33a31.6 31.6 0 0 1-5.131 6.48c-2.082 2.015-4.6 3.554-6.568 5.687-.493.533-.943 1.109-1.336 1.72-.502.776.74 1.496 1.239.722 1.603-2.482 4.222-4.053 6.413-5.956a32.8 32.8 0 0 0 5.733-6.53c3.281-4.898 5.22-10.657 5.518-16.544.316-6.194-1.153-12.488-4.202-17.891-1.517-2.692-3.438-5.203-5.807-7.203-2.154-1.817-4.609-3.202-7.234-4.214C94.084.367 88.257-.123 82.613.024Q81.57.05 80.529.107c-.92.046-.926 1.48 0 1.43"/></svg>
